public/assets/images/icon/wcuIcon1_5.svg

<svg width="80" height="80" viewBox="0 0 80 80" fill="none" xmlns="http://www.w3.org/2000/svg">
<rect opacity="0.2" x="0.5" y="0.5" width="79" height="79" rx="9.5" stroke="#7444FD"/>
<path opacity="0.866" fill-rule="evenodd" clip-rule="evenodd" d="M39.5332 15C40.2071 15 40.8808 15 41.5547 15C44.3952 15.7505 45.9187 17.5627 46.125 20.4366C45.8823 23.5984 44.1538 25.4391 40.9395 25.9589C40.8516 27.4419 40.8223 28.9259 40.8516 30.411C41.6141 30.5871 42.3758 30.7726 43.1367 30.9675C44.0199 30.979 44.8988 31.0361 45.7734 31.1387C46.4175 31.3104 46.9742 31.6243 47.4434 32.0805C48.6004 32.3693 49.743 32.6975 50.8711 33.0651C51.4102 32.7538 51.9376 32.4256 52.4531 32.0805C51.1092 29.0979 51.783 26.6436 54.4746 24.7175C57.1838 23.4168 59.6008 23.8021 61.7256 25.8733C62.3618 26.636 62.7866 27.4921 63 28.4418C63 29.1267 63 29.8116 63 30.4966C62.2086 33.264 60.3337 34.748 57.375 34.9486C55.4995 34.8985 53.9908 34.1565 52.8486 32.7226C52.3506 33.0366 51.8526 33.3504 51.3545 33.6644C51.3252 34.6633 51.2959 35.6621 51.2666 36.661C51.1037 37.0914 50.7961 37.3482 50.3438 37.4315C50.3584 39.6862 50.3438 41.9408 50.2998 44.1952C50.2116 44.9378 49.7867 45.3801 49.0254 45.5223C50.168 46.3071 51.3105 47.0919 52.4531 47.8767C54.0556 46.1818 56.0186 45.5967 58.3418 46.1216C61.5277 47.3197 62.8313 49.5599 62.2529 52.8425C61.3627 55.3961 59.5317 56.7659 56.7598 56.9521C53.8486 56.7271 52.0175 55.2431 51.2666 52.5C51.0018 51.0803 51.2509 49.7533 52.0137 48.5188C50.7091 47.6408 49.42 46.7419 48.1465 45.8219C45.7442 46.7066 43.3418 47.5914 40.9395 48.476C40.8516 50.3301 40.8223 52.1852 40.8516 54.0411C43.7349 54.4098 45.478 55.9794 46.0811 58.75C46.2612 62.0561 44.7231 64.1394 41.4668 65C40.8223 65 40.1777 65 39.5332 65C36.2772 64.1405 34.7391 62.0571 34.9189 58.75C35.5196 55.9818 37.2628 54.4122 40.1484 54.0411C40.1631 52.2715 40.1484 50.5021 40.1045 48.7329C39.8049 48.8289 39.4973 48.8432 39.1816 48.7757C36.3488 48.068 33.5217 47.3402 30.7002 46.5925C29.9616 47.0022 29.2438 47.4445 28.5469 47.9195C29.7799 50.5587 29.3112 52.8704 27.1406 54.8545C25.0939 56.2241 22.9552 56.3669 20.7246 55.2825C19.2402 54.3648 18.332 53.0663 18 51.387C18 50.8162 18 50.2455 18 49.6747C18.7088 46.8304 20.5692 45.2893 23.5811 45.0514C25.4753 45.0893 26.9988 45.8313 28.1514 47.2774C28.7151 46.8958 29.2864 46.5247 29.8652 46.1644C29.7678 46.003 29.6945 45.8318 29.6455 45.6507C29.6016 43.3392 29.5869 41.0276 29.6016 38.7158C29.0533 38.6241 28.7163 38.3102 28.5908 37.774C28.5322 36.8893 28.5322 36.0045 28.5908 35.1199C28.6654 34.8461 28.7972 34.6035 28.9863 34.3921C29.5302 34.1417 30.0868 33.9134 30.6562 33.7072C30.7734 33.6501 30.7734 33.5931 30.6562 33.536C29.9411 33.0818 29.238 32.6109 28.5469 32.1233C26.7639 33.9694 24.6252 34.4974 22.1309 33.7072C19.4703 32.4764 18.313 30.4358 18.6592 27.5856C19.3709 24.7696 21.2166 23.2856 24.1963 23.1336C26.6292 23.2222 28.3577 24.3353 29.3818 26.4726C30.0156 28.2036 29.8838 29.8731 28.9863 31.4812C29.8515 32.0595 30.7011 32.6588 31.5352 33.2791C31.6523 33.3362 31.7696 33.3362 31.8867 33.2791C34.6269 32.2515 37.3808 31.2669 40.1484 30.3253C40.1777 28.8688 40.1483 27.4133 40.0605 25.9589C36.8467 25.4396 35.1182 23.5989 34.875 20.4366C35.077 17.5135 36.6297 15.7013 39.5332 15ZM39.8848 15.6849C42.7076 15.6245 44.5094 16.9088 45.29 19.5377C45.5965 22.5235 44.2636 24.3928 41.291 25.1455C38.411 25.3351 36.5507 24.0937 35.71 21.4212C35.4164 18.3388 36.8081 16.4267 39.8848 15.6849ZM23.5371 23.8185C26.4293 23.7405 28.2604 25.0533 29.0303 27.7568C29.2397 30.6628 27.9067 32.5036 25.0312 33.2791C22.1009 33.4731 20.2406 32.2031 19.4502 29.4692C19.1888 26.4673 20.5511 24.5837 23.5371 23.8185ZM56.8477 24.6747C59.1834 24.5996 60.868 25.5699 61.9014 27.5856C62.8244 30.4262 61.9308 32.5238 59.2207 33.8784C56.7911 34.6211 54.8136 34.0074 53.2881 32.0377C52.0316 29.7404 52.3392 27.6713 54.2109 25.8305C54.9998 25.2319 55.8787 24.8467 56.8477 24.6747ZM40.1484 31.0103C40.7748 31.1233 41.3901 31.2802 41.9941 31.4812C38.7129 32.6798 35.4316 33.8784 32.1504 35.0771C31.5059 35.0557 30.8907 34.9129 30.3047 34.649C33.6034 33.4551 36.8846 32.2422 40.1484 31.0103ZM43.4883 31.6952C44.4765 31.591 45.4141 31.748 46.3008 32.1661C42.9244 33.4677 39.5259 34.7235 36.1055 35.9332C35.6866 36.1412 35.4375 36.4694 35.3584 36.9178C35.3291 38.573 35.2998 40.2283 35.2705 41.8836C35.2342 42.1175 35.1756 42.3458 35.0947 42.5685C34.6671 42.0512 34.3303 41.4805 34.084 40.8562C34.2936 40.5444 34.2936 40.2448 34.084 39.9572C33.8905 39.8866 33.7294 39.9294 33.6006 40.0856C33.3431 40.7315 32.9769 41.3023 32.502 41.7979C32.4318 41.6628 32.3879 41.5202 32.3701 41.3699C32.3115 39.5719 32.3115 37.774 32.3701 35.976C32.403 35.8976 32.4469 35.8262 32.502 35.762C36.1694 34.3955 39.8314 33.04 43.4883 31.6952ZM47.0039 32.7226C47.9067 32.9728 48.8149 33.2153 49.7285 33.4503C46.4248 34.6658 43.1142 35.8645 39.7969 37.0462C39.6504 37.1033 39.5039 37.1033 39.3574 37.0462C38.5664 36.8465 37.7754 36.6467 36.9844 36.4469C40.3363 35.2115 43.6762 33.97 47.0039 32.7226ZM50.4316 33.9212C50.5483 34.3023 50.6069 34.7161 50.6074 35.1627C50.5927 35.5765 50.5782 35.9903 50.5635 36.4041C50.5306 36.4825 50.4867 36.5539 50.4316 36.6182C46.8272 37.9789 43.209 39.3059 39.5771 40.5993C38.4321 40.2848 37.2895 39.9709 36.1494 39.6575C36.1055 38.7733 36.0909 37.8886 36.1055 37.0034C37.2633 37.2818 38.4205 37.5672 39.5771 37.8596C43.2322 36.6207 46.8504 35.308 50.4316 33.9212ZM29.3379 35.2055C30.0639 35.4181 30.7963 35.6178 31.5352 35.8048C31.6376 36.7167 31.6522 37.63 31.5791 38.5445C30.9275 38.3426 30.2683 38.157 29.6016 37.988C29.5283 37.9167 29.455 37.8453 29.3818 37.774C29.3379 36.9183 29.3233 36.0622 29.3379 35.2055ZM49.377 37.774C49.4941 38.8426 49.5526 39.9414 49.5527 41.0702C49.5381 42.1689 49.5235 43.2677 49.5088 44.3664C49.4648 44.5234 49.3623 44.6233 49.2012 44.6661C46.0175 45.8473 42.8242 47.0032 39.6211 48.1336C36.6914 47.3773 33.7617 46.621 30.832 45.8647C30.657 45.8156 30.5251 45.7157 30.4365 45.5651C30.3633 43.367 30.378 41.1695 30.4805 38.9726C30.855 39.0672 31.2211 39.1814 31.5791 39.3151C31.5465 40.1199 31.5758 40.919 31.667 41.7123C31.7801 42.5965 32.2342 42.8391 33.0293 42.4401C33.2198 42.1975 33.4101 41.9549 33.6006 41.7123C33.8645 42.2833 34.2307 42.7827 34.6992 43.2106C35.0946 43.4133 35.4315 43.3419 35.71 42.9966C36.014 42.1694 36.1605 41.3133 36.1494 40.4281C37.1519 40.7187 38.1626 40.9897 39.1816 41.2414C39.2544 43.133 39.2984 45.0309 39.3135 46.9349C39.5909 47.1831 39.8252 47.1545 40.0166 46.8493C40.0313 44.9651 40.0752 43.0815 40.1484 41.1986C43.247 40.0883 46.3232 38.9467 49.377 37.774ZM23.4492 45.7363C26.1052 45.9125 27.7605 47.2538 28.415 49.7603C28.669 52.1641 27.6875 53.8907 25.4707 54.9401C22.6251 55.8049 20.5011 54.963 19.0986 52.4144C18.2445 49.9449 18.9037 47.9614 21.0762 46.464C21.8259 46.0539 22.6169 45.8113 23.4492 45.7363ZM55.9688 46.6781C58.1364 46.4712 59.821 47.2418 61.0225 48.9897C62.2432 51.4925 61.7598 53.6187 59.5723 55.3682C57.1486 56.7002 54.966 56.4005 53.0244 54.4692C51.9535 53.1055 51.6605 51.5929 52.1455 49.9315C52.8387 48.1853 54.1131 47.1008 55.9688 46.6781ZM39.709 54.8116C42.5869 54.6633 44.4472 55.919 45.29 58.5788C45.6204 61.4027 44.4045 63.272 41.6426 64.1866C38.7874 64.5997 36.8391 63.5009 35.7979 60.8904C35.2742 58.6527 35.9626 56.869 37.8633 55.5394C38.448 55.2026 39.0633 54.96 39.709 54.8116Z" fill="#7444FD"/>
</svg>

<?xml version="1.0" encoding="UTF-8"?>
<svg id="Capa_1" xmlns="http://www.w3.org/2000/svg" version="1.1" viewBox="0 0 80 80">
  <!-- Generator: Adobe Illustrator 29.8.1, SVG Export Plug-In . SVG Version: 2.1.1 Build 2)  -->
  <defs>
    <style>
      .st0 {
        fill: none;
        opacity: .74;
        stroke: #129689;
      }

      .st0, .st1 {
        isolation: isolate;
      }

      .st1 {
        fill: #129689;
        fill-rule: evenodd;
        opacity: .87;
      }
    </style>
  </defs>
  <rect class="st0" x=".5" y=".5" width="79" height="79" rx="9.5" ry="9.5"/>
  <path class="st1" d="M39.53,15h2.02c2.84.75,4.36,2.56,4.57,5.44-.24,3.16-1.97,5-5.19,5.52-.09,1.48-.12,2.97-.09,4.45.76.18,1.52.36,2.29.56.88.01,1.76.07,2.64.17.64.17,1.2.49,1.67.94,1.16.29,2.3.62,3.43.98.54-.31,1.07-.64,1.58-.98-1.34-2.98-.67-5.44,2.02-7.36,2.71-1.3,5.13-.92,7.25,1.16.64.76,1.06,1.62,1.27,2.57v2.05c-.79,2.77-2.67,4.25-5.62,4.45-1.88-.05-3.38-.79-4.53-2.23-.5.31-1,.63-1.49.94-.03,1-.06,2-.09,3-.16.43-.47.69-.92.77.01,2.25,0,4.51-.04,6.76-.09.74-.51,1.18-1.27,1.33,1.14.78,2.29,1.57,3.43,2.35,1.6-1.69,3.57-2.28,5.89-1.76,3.19,1.2,4.49,3.44,3.91,6.72-.89,2.55-2.72,3.92-5.49,4.11-2.91-.22-4.74-1.71-5.49-4.45-.26-1.42-.02-2.75.75-3.98-1.3-.88-2.59-1.78-3.87-2.7-2.4.88-4.8,1.77-7.21,2.65-.09,1.85-.12,3.71-.09,5.57,2.88.37,4.63,1.94,5.23,4.71.18,3.31-1.36,5.39-4.61,6.25h-1.93c-3.26-.86-4.79-2.94-4.61-6.25.6-2.77,2.34-4.34,5.23-4.71.01-1.77,0-3.54-.04-5.31-.3.1-.61.11-.92.04-2.83-.71-5.66-1.44-8.48-2.18-.74.41-1.46.85-2.15,1.33,1.23,2.64.76,4.95-1.41,6.94-2.05,1.37-4.19,1.51-6.42.43-1.48-.92-2.39-2.22-2.72-3.9v-1.71c.71-2.84,2.57-4.39,5.58-4.62,1.89.04,3.42.78,4.57,2.23.56-.38,1.14-.75,1.71-1.11-.1-.16-.17-.33-.22-.51-.04-2.31-.06-4.62-.04-6.93-.55-.09-.89-.41-1.01-.94-.06-.88-.06-1.77,0-2.65.07-.27.21-.52.4-.73.54-.25,1.1-.48,1.67-.68.12-.06.12-.11,0-.17-.72-.45-1.42-.93-2.11-1.41-1.78,1.85-3.92,2.37-6.42,1.58-2.66-1.23-3.82-3.27-3.47-6.12.71-2.82,2.56-4.3,5.54-4.45,2.43.09,4.16,1.2,5.19,3.34.63,1.73.5,3.4-.4,5.01.87.58,1.71,1.18,2.55,1.8.12.06.23.06.35,0,2.74-1.03,5.49-2.01,8.26-2.95.03-1.46,0-2.91-.09-4.37-3.21-.52-4.94-2.36-5.19-5.52.2-2.92,1.75-4.74,4.66-5.44ZM39.88,15.68c2.82-.06,4.62,1.22,5.41,3.85.31,2.99-1.03,4.86-4,5.61-2.88.19-4.74-1.05-5.58-3.72-.29-3.08,1.1-4.99,4.17-5.74ZM23.54,23.82c2.89-.08,4.72,1.23,5.49,3.94.21,2.91-1.12,4.75-4,5.52-2.93.19-4.79-1.08-5.58-3.81-.26-3,1.1-4.89,4.09-5.65ZM56.85,24.67c2.34-.08,4.02.9,5.05,2.91.92,2.84.03,4.94-2.68,6.29-2.43.74-4.41.13-5.93-1.84-1.26-2.3-.95-4.37.92-6.21.79-.6,1.67-.98,2.64-1.16ZM40.15,31.01c.63.11,1.24.27,1.85.47-3.28,1.2-6.56,2.4-9.84,3.6-.64-.02-1.26-.16-1.85-.43,3.3-1.19,6.58-2.41,9.84-3.64ZM43.49,31.7c.99-.1,1.93.05,2.81.47-3.38,1.3-6.77,2.56-10.2,3.77-.42.21-.67.54-.75.98-.03,1.66-.06,3.31-.09,4.97-.04.23-.09.46-.18.68-.43-.52-.76-1.09-1.01-1.71.21-.31.21-.61,0-.9-.19-.07-.35-.03-.48.13-.26.65-.62,1.22-1.1,1.71-.07-.14-.11-.28-.13-.43-.06-1.8-.06-3.6,0-5.39.03-.08.08-.15.13-.21,3.67-1.37,7.33-2.72,10.99-4.07ZM47,32.72c.9.25,1.81.49,2.72.73-3.3,1.22-6.61,2.41-9.93,3.6-.15.06-.29.06-.44,0-.79-.2-1.58-.4-2.37-.6,3.35-1.24,6.69-2.48,10.02-3.72ZM50.43,33.92c.12.38.18.79.18,1.24-.01.41-.03.83-.04,1.24-.03.08-.08.15-.13.21-3.6,1.36-7.22,2.69-10.85,3.98-1.15-.31-2.29-.63-3.43-.94-.04-.88-.06-1.77-.04-2.65,1.16.28,2.32.56,3.47.86,3.66-1.24,7.27-2.55,10.85-3.94ZM29.34,35.21c.73.21,1.46.41,2.2.6.1.91.12,1.83.04,2.74-.65-.2-1.31-.39-1.98-.56-.07-.07-.15-.14-.22-.21-.04-.86-.06-1.71-.04-2.57ZM49.38,37.77c.12,1.07.18,2.17.18,3.3-.01,1.1-.03,2.2-.04,3.3-.04.16-.15.26-.31.3-3.18,1.18-6.38,2.34-9.58,3.47-2.93-.76-5.86-1.51-8.79-2.27-.18-.05-.31-.15-.4-.3-.07-2.2-.06-4.4.04-6.59.37.09.74.21,1.1.34-.03.8,0,1.6.09,2.4.11.88.57,1.13,1.36.73.19-.24.38-.49.57-.73.26.57.63,1.07,1.1,1.5.4.2.73.13,1.01-.21.3-.83.45-1.68.44-2.57,1,.29,2.01.56,3.03.81.07,1.89.12,3.79.13,5.69.28.25.51.22.7-.09.01-1.88.06-3.77.13-5.65,3.1-1.11,6.17-2.25,9.23-3.42ZM23.45,45.74c2.66.18,4.31,1.52,4.97,4.02.25,2.4-.73,4.13-2.94,5.18-2.85.86-4.97.02-6.37-2.53-.85-2.47-.19-4.45,1.98-5.95.75-.41,1.54-.65,2.37-.73ZM55.97,46.68c2.17-.21,3.85.56,5.05,2.31,1.22,2.5.74,4.63-1.45,6.38-2.42,1.33-4.61,1.03-6.55-.9-1.07-1.36-1.36-2.88-.88-4.54.69-1.75,1.97-2.83,3.82-3.25ZM39.71,54.81c2.88-.15,4.74,1.11,5.58,3.77.33,2.82-.89,4.69-3.65,5.61-2.86.41-4.8-.69-5.84-3.3-.52-2.24.16-4.02,2.07-5.35.58-.34,1.2-.58,1.85-.73Z"/>
</svg>
